X: 10073
T: Dickies
R: hornpipe
M: 4/4
K: Dmajor
d2 fd ABBd|BAFB AGFG|ABde faaf|ggfg egfe|
d2 fd ABBd|BAFB AGFG|ABde faaf|gece dABA||
ABde fdBA|(3Bcd fd defd|ea a2 deef|fggf egfe|
d2 fd AB B2|BAFB AGFG|ABde faaf|gece dABA|
ABde fdBA|(3Bcd fd defd|ea a2 deef|fg g2 gfef|
fded ABdB|BAFB AGFG|ABde faaf|gece d2 d2||
DFAd effe|d3e fdAF|G2 FG DEEF|GE E2 EFGE|
FDAG FAAd|AB3 Bcde|faaf (3gfe cd|eddc dBAF|
DFAd effe|d3e fdAF|G2 FG DEEF|G3F EFGE|
F2 AG F2 Ad|AB3 Bcde|faaf (3gfe cd|eddc dfaf||
f2 af dfaf|g2 ed ceag|faaf (3gfe ed|BAAG A3G|
FDAG FAAd|AB3 Bcde|faaf gecd|eddc d2 d2||

